src/actions/16/amarok_scripts.svg

<svg xmlns="http://www.w3.org/2000/svg" viewBox="0 0 16 16">
  <defs id="defs3051">
    <style type="text/css" id="current-color-scheme">
      .ColorScheme-Text {
        color:#2e3440;
      }
      </style>
  </defs>
 <path style="fill:currentColor;fill-opacity:1;stroke:none" 
     d="M 3.7148438 3 L 3 3.6953125 L 5.6386719 6.4921875 L 3.0175781 9.3046875 L 3.7324219 10 L 6.6757812 6.8378906 L 7 6.4921875 L 6.6757812 6.1445312 L 3.7148438 3 z M 7 12 L 7 13 L 13 13 L 13 12 L 7 12 z "
     class="ColorScheme-Text"
     />
</svg>

<svg viewBox="0 0 16 16" xmlns="http://www.w3.org/2000/svg">
 <defs>
  <style type="text/css">.ColorScheme-Text {
        color:#2e3440;
      }</style>
 </defs>
 <path class="ColorScheme-Text" d="m3.7148 3-0.71484 0.69531 2.6387 2.7969-2.6211 2.8125 0.71484 0.69531 2.9434-3.1621 0.32422-0.3457-0.32422-0.34766-2.9609-3.1445zm3.2852 9v1h6v-1h-6z" fill="currentColor"/>
</svg>
